X:100
T:Kitty in the Lane (r)
B:NFID.153b
100kitty_L
S:CC
N:NF version has |d/e/d/c/ df edcA| as first measure.
L:1/8
M:C
R:reel
Q:360
K:A
d2df edcA|fB~B2 fecA|de (3fga edca|eAAa eAAe|
d2fa eAce|fB~B2 fecA|de (3fga edca|eAAa eAAe||
(3aba ga fbea|fB~B2 fece|(3aba ga fbaf|1 eAAa eAce:|\
[2 e^dea (3fga ec||

%%%

